X:2392
T:Yn coayl jeh ny baatyn skeddan 
T:(The loss of the herring boats)
C:Miss Mary Gawne, Peel
C:Traditional
O:Isle of Man
B:A.W.Moore et.al.
Z:Kiaull Vannin #392
N:See also KV 224,244,259,274,284,391
M:3/4 
L:1/4 
K:G
G|A A B|c2 B/A/|B c B|G2 F|A Bc|d cB|B !fermata!A B|
A A G|F2 E/D/|E D E/F/|!fermata!G2 F/G/|A B A|F E D|E D||

